common/assets/images/wallets/metamask.svg

<?xml version="1.0" encoding="UTF-8"?>
<svg width="317px" height="331px" viewBox="0 0 317 331" version="1.1" xmlns="http://www.w3.org/2000/svg" xmlns:xlink="http://www.w3.org/1999/xlink">
    <!-- Generator: Sketch 48.1 (47250) - http://www.bohemiancoding.com/sketch -->
    <title>metamask</title>
    <desc>Created with Sketch.</desc>
    <defs></defs>
    <g id="Page-1" stroke="none" stroke-width="1" fill="none" fill-rule="evenodd">
        <g id="metamask" fill-rule="nonzero">
            <g id="Shape">
                <polygon stroke="#BBBBBB" fill="#BBBBBB" points="300 229 280.763485 294 243 283.678788"></polygon>
                <polygon stroke="#BBBBBB" fill="#BBBBBB" points="243 284 279.423237 233.834294 300 229"></polygon>
                <path d="M272,179.716489 L300,229.151839 L279.643454,234 L272,179.716489 Z M272,179.716489 L290.016713,167 L300,229.151839 L272,179.716489 Z" fill="#DDDDDD"></path>
                <path d="M249,142.560976 L301,121 L298.415663,132.810976 L249,142.560976 Z M296.771084,147 L249,142.560976 L298.415663,132.810976 L296.771084,147 Z" stroke="#000000" fill="#000000"></path>
                <path d="M296.851563,146.862549 L290.689098,167 L249,142.498282 L296.851563,146.862549 Z M306.893674,125.979381 L298,132.776632 L300.620458,121 L306.893674,125.979381 Z M296,147.147766 L297.667564,133 L304.734859,138.848797 L296,147.147766 Z" stroke="#000000" fill="#000000"></path>
                <path d="M290.501771,167 L296.750885,146.521729 L303,151.670968 L290.501771,167 Z M290.992432,167.10791 L235.792725,148.983398 L248.977783,141.554199 L290.992432,167.10791 Z" stroke="#000000" fill="#000000"></path>
                <polygon stroke="#000000" fill="#000000" points="261.963379 80.3129883 249 142.452436 236 149"></polygon>
                <polygon stroke="#000000" fill="#000000" points="301 121.351733 248.367188 143.222168 261.624512 80.5117188"></polygon>
                <polygon stroke="#000000" fill="#000000" points="262 81.2691652 317 75 300.998047 121.375"></polygon>
                <polygon fill="#DDDDDD" points="290.681641 166.88501 271.895501 180 235.297607 148.680664"></polygon>
                <polygon stroke="#000000" fill="#000000" points="313.882812 31.1132812 317 75.1660156 261.748047 81.559082"></polygon>
                <polygon stroke="#BBBBBB" fill="#BBBBBB" points="314 31 204.526123 111.583008 203 56.7398213"></polygon>
                <polygon fill="#DDDDDD" points="122 50 203.574427 56.4313725 205.114014 110.804199"></polygon>
                <polygon stroke="#000000" fill="#000000" points="236.105263 149 205 109.87239 262 81"></polygon>
                <polygon stroke="#BBBBBB" fill="#BBBBBB" points="235.673406 149 272.702148 180.192871 220.705078 185.546875"></polygon>
                <polygon stroke="#BBBBBB" fill="#BBBBBB" points="220.5 186.560059 205 110 236 148.993711"></polygon>
                <polygon stroke="#000000" fill="#000000" points="261.821661 81.9235353 205 111 314 31"></polygon>
                <polygon fill="#C0AD9E" points="122.280899 283.05679 148 310 113 278"></polygon>
                <polygon stroke="#999999" fill="#999999" points="243 284 255.077922 237.475513 279.552002 234.016846"></polygon>
                <polygon fill="#E2761B" points="18 153 63 106 23.8038869 147.391597"></polygon>
                <path d="M279.638916,234.052734 L254.892334,237.791992 L272.25025,180.452211 L279.638916,234.052734 Z M204.874875,110.555789 L161.302302,109.130947 L122,50 L204.874875,110.555789 Z" fill="#DDDDDD"></path>
                <polygon stroke="#AAAAAA" fill="#AAAAAA" points="272.860352 178.466309 255.035889 238.403076 253.430664 209.201538"></polygon>
                <polygon stroke="#999999" fill="#999999" points="221 185.534946 272 180 254.07465 209"></polygon>
                <polygon fill="#DDDDDD" points="161 109 205.040527 109.762451 221 186"></polygon>
                <path d="M162.666504,110.812012 L43.8779297,0 L122.686523,49.7369804 L162.666504,110.812012 Z M122.605469,298.883789 L20.4082031,331 L0,252.227539 L122.605469,298.883789 Z" stroke="#BBBBBB" fill="#BBBBBB"></path>
                <polygon stroke="#000000" fill="#000000" points="33 172 71.6265329 142 104 149.441253"></polygon>
                <polygon stroke="#000000" fill="#000000" points="104 150 72 142.487487 89.1344743 71"></polygon>
                <polygon stroke="#000000" fill="#000000" points="24 147.169713 72 142 33.4102142 172"></polygon>
                <polygon stroke="#999999" fill="#999999" points="254 209 234.057554 198.873754 221 185"></polygon>
                <polygon stroke="#000000" fill="#000000" points="24.0253906 147.559082 19.7363281 127.630127 72.6230469 142.035156"></polygon>
                <polygon fill="#000000" points="229.504639 222.02832 233.890869 198.618896 254.018799 208.942871"></polygon>
                <polygon fill="#DDDDDD" points="255 237 230 221.540845 253.676012 209"></polygon>
                <path d="M72.0783081,142.372253 L20.1834513,129.755756 L16,114.651652 L72.0783081,142.372253 Z M89.4462891,70.630127 L72.0721436,142.393555 L16,114.651652 L89.4462891,70.630127 Z M89,71 L161,109.037037 L103.773544,150 L89,71 Z" stroke="#000000" fill="#000000"></path>
                <path d="M102.939453,149.790527 L161.446777,108.118652 L187,187 L102.939453,149.790527 Z M187,187 L107.214355,184.98877 L103.306152,149.833008 L187,187 Z" stroke="#BBBBBB" fill="#BBBBBB"></path>
                <path d="M32.0712891,171.77832 L103.916504,149.303223 L107.426532,185.340426 L32.0712891,171.77832 Z M221,185.81459 L186.509656,187 L161.016793,109 L221,185.81459 Z" fill="#DDDDDD"></path>
                <polygon stroke="#999999" fill="#999999" points="234 198.617391 229.90303 221 221 185"></polygon>
                <polygon stroke="#000000" fill="#000000" points="44 0 161 109 88.697998 71.2009277"></polygon>
                <polygon stroke="#BBBBBB" fill="#BBBBBB" points="0 252.468262 98.902832 247.6875 122.921875 299.431641"></polygon>
                <polygon stroke="#999999" fill="#999999" points="122.545455 299 99 248.383808 148 246"></polygon>
                <path d="M230.672711,221.514124 L256.022229,237.016949 L265.330322,267.536621 L230.672711,221.514124 Z M108.110559,184.655367 L0,252.59887 L33.6414156,172 L108.110559,184.655367 Z M99.0289558,248.485876 L0,252.59887 L108.110559,184.655367 L99.0289558,248.485876 Z M221.749049,185.129944 L228.329102,209.351562 L196.20166,211.189697 L221.749049,185.129944 Z M196.142822,211.310303 L187.238959,186.316384 L221.749049,185.129944 L196.142822,211.310303 Z" stroke="#BBBBBB" fill="#BBBBBB"></path>
                <polygon fill="#FBFBFB" points="148.453925 309.720812 122 299 214 315"></polygon>
                <polygon stroke="#000000" fill="#000000" points="33.5405273 171.776367 18 152.599369 24.121582 146.518799"></polygon>
                <polygon fill="#FFFFFF" points="225.334473 302.741699 214.44873 315.716797 122 299"></polygon>
                <polygon stroke="#BBBBBB" fill="#BBBBBB" points="230.497559 275.182129 122 299 147.263158 246"></polygon>
                <polygon fill="#FFFFFF" points="122 299.011173 224.425587 276.239335 230 275 225.026316 303"></polygon>
                <path d="M16.5367115,114.898062 L13.1118164,53.6879883 L89.7861328,70.8154297 L16.5367115,114.898062 Z M24.1728516,147.156738 L13.6287487,137.309183 L20.7021717,130.023589 L24.1728516,147.156738 Z" stroke="#000000" fill="#000000"></path>
                <polygon stroke="#999999" fill="#999999" points="169 202.545455 186.879395 185.943848 184.428571 225"></polygon>
                <polygon stroke="#999999" fill="#999999" points="186 187 169.392822 203.094971 143 216"></polygon>
                <path d="M264.222892,266.476346 L230,222 L264.222892,266.476346 Z" stroke="#BBBBBB" fill="#BBBBBB"></path>
                <polygon stroke="#999999" fill="#999999" points="143.636727 216 108 185 187 186.677835"></polygon>
                <polygon stroke="#AAAAAA" fill="#AAAAAA" points="184 225 186.960205 185.625732 196.302979 211.109863"></polygon>
                <polygon stroke="#000000" fill="#000000" points="10 119.968586 16.6492537 114 21 129"></polygon>
                <polygon fill="#000000" points="185.06543 225.883789 142.477783 216.035645 168.803089 202"></polygon>
                <polygon stroke="#000000" fill="#000000" points="89 71 13 53.7854749 44.0444674 0"></polygon>
                <polygon fill="#FBFBFB" points="214.661621 314.608398 219.323242 326.847656 148.149902 309.338379"></polygon>
                <polygon fill="#DDDDDD" points="146.878378 247 143 216 184 225.323907"></polygon>
                <polygon stroke="#AAAAAA" fill="#AAAAAA" points="108 185 144.087824 215.460746 147.286621 246.429199"></polygon>
                <path d="M196.127808,211.066406 L228.076046,209.108317 L265,267 L196.127808,211.066406 Z M108.073194,185 L147.60076,246.618956 L98.7451172,248.597656 L108.073194,185 Z" fill="#DDDDDD"></path>
                <polygon stroke="#AAAAAA" fill="#AAAAAA" points="196.217929 211 235 270 183.407227 225.09375"></polygon>
                <polygon stroke="#BBBBBB" fill="#BBBBBB" points="183.709229 224.863281 235.486816 270.005859 228.958496 275.549316"></polygon>
                <path d="M229.403226,275 L147,246.555556 L183.877016,225.064198 L229.403226,275 Z M265.065247,267.038452 L235.010742,270.378784 L195.155273,209.339355 L265.065247,267.038452 Z" fill="#DDDDDD"></path>
                <path d="M272.00824,294.410675 L259.356948,320.362963 L218.346049,327 L272.00824,294.410675 Z M219.55719,327.282715 L214,315.148148 L225.11438,302.943848 L219.55719,327.282715 Z" fill="#FBFBFB"></path>
                <path d="M225.051514,302.968872 L232.809204,299.898437 L219,327 L225.051514,302.968872 Z M219,327 L232.710693,299.850464 L272.031677,294.415588 L219,327 Z" fill="#FBFBFB"></path>
                <polygon fill="#000000" points="265.13369 267 274.98291 272.750488 245 276"></polygon>
                <path d="M244.534709,276.545455 L235,270.340909 L265.137085,267.049438 L244.534709,276.545455 Z M241.146341,281.238636 L277,276.863636 L272.036133,294.474121 L241.146341,281.238636 Z" fill="#000000"></path>
                <path d="M272.066265,294.415274 L232.674699,299.928401 L241.36747,280.789976 L272.066265,294.415274 Z M232.858643,299.856323 L225,303 L229.64389,274.996735 L232.858643,299.856323 Z M229.646622,274.991623 L235.259036,270 L244.73494,276.143198 L229.646622,274.991623 Z M274.82019,272.612183 L277.009399,276.895203 L240.491821,281.35498 L274.82019,272.612183 Z" fill="#000000"></path>
                <path d="M241.280029,281.16687 L244.26709,275.812866 L274.876221,272.649902 L241.280029,281.16687 Z M229.641754,274.986938 L241.410302,281.092219 L232.735346,300 L229.641754,274.986938 Z" fill="#000000"></path>
                <polygon fill="#000000" points="244.553223 276.001831 241.346558 281.346558 229.65329 274.99649"></polygon>
            </g>
        </g>
    </g>
</svg>

<svg xmlns="http://www.w3.org/2000/svg" width="317" height="331"><g fill="none"><path fill="#BBB" stroke="#BBB" d="M300 229l-19.237 65L243 283.679z"/><path fill="#BBB" stroke="#BBB" d="M243 284l36.423-50.166L300 229z"/><path fill="#DDD" d="M272 179.716l28 49.436L279.643 234 272 179.716zm0 0L290.017 167 300 229.152l-28-49.436z"/><path fill="#000" stroke="#000" d="M249 142.561L301 121l-2.584 11.811-49.416 9.75zM296.771 147L249 142.561l49.416-9.75L296.77 147z"/><path fill="#000" stroke="#000" d="M296.852 146.863L290.689 167 249 142.498l47.852 4.365zm10.042-20.884L298 132.777 300.62 121l6.274 4.98zM296 147.148L297.668 133l7.067 5.849-8.735 8.299z"/><path fill="#000" stroke="#000" d="M290.502 167l6.249-20.478L303 151.67 290.502 167zm.49.108l-55.2-18.125 13.186-7.429 42.014 25.554z"/><path fill="#000" stroke="#000" d="M261.963 80.313L249 142.453 236 149z"/><path fill="#000" stroke="#000" d="M301 121.352l-52.633 21.87 13.258-62.71z"/><path fill="#000" stroke="#000" d="M262 81.27L317 75l-16.002 46.375z"/><path fill="#DDD" d="M290.682 166.885L271.896 180l-36.598-31.32z"/><path fill="#000" stroke="#000" d="M313.883 31.113L317 75.166l-55.252 6.393z"/><path fill="#BBB" stroke="#BBB" d="M314 31l-109.474 80.583L203 56.74z"/><path fill="#DDD" d="M122 50l81.574 6.431 1.54 54.373z"/><path fill="#000" stroke="#000" d="M236.105 149L205 109.872 262 81z"/><path fill="#BBB" stroke="#BBB" d="M235.673 149l37.03 31.193-51.998 5.354z"/><path fill="#BBB" stroke="#BBB" d="M220.5 186.56L205 110l31 38.994z"/><path fill="#000" stroke="#000" d="M261.822 81.924L205 111l109-80z"/><path fill="#C0AD9E" d="M122.28 283.057L148 310l-35-32z"/><path fill="#999" stroke="#999" d="M243 284l12.078-46.524 24.474-3.46z"/><path fill="#E2761B" d="M18 153l45-47-39.196 41.392z"/><path fill="#DDD" d="M279.639 234.053l-24.747 3.739 17.358-57.34 7.389 53.6zm-74.764-123.497l-43.573-1.425L122 50l82.875 60.556z"/><path fill="#AAA" stroke="#AAA" d="M272.86 178.466l-17.824 59.937-1.605-29.201z"/><path fill="#999" stroke="#999" d="M221 185.535L272 180l-17.925 29z"/><path fill="#DDD" d="M161 109l44.04.762L221 186z"/><path fill="#BBB" stroke="#BBB" d="M162.667 110.812L43.877 0l78.81 49.737 39.98 61.075zm-40.062 188.072L20.408 331 0 252.228l122.605 46.656z"/><path fill="#000" stroke="#000" d="M33 172l38.627-30L104 149.441z"/><path fill="#000" stroke="#000" d="M104 150l-32-7.513L89.134 71zm-80-2.83L72 142l-38.59 30z"/><path fill="#999" stroke="#999" d="M254 209l-19.942-10.126L221 185z"/><path fill="#000" stroke="#000" d="M24.025 147.56l-4.289-19.93 52.887 14.405z"/><path fill="#000" d="M229.505 222.028l4.386-23.41 20.128 10.325z"/><path fill="#DDD" d="M255 237l-25-15.46L253.676 209z"/><path fill="#000" stroke="#000" d="M72.078 142.372l-51.895-12.616L16 114.652l56.078 27.72zM89.446 70.63l-17.374 71.764L16 114.652 89.446 70.63zM89 71l72 38.037L103.774 150 89 71z"/><path fill="#BBB" stroke="#BBB" d="M102.94 149.79l58.507-41.671L187 187l-84.06-37.21zM187 187l-79.786-2.011-3.908-35.156L187 187z"/><path fill="#DDD" d="M32.071 171.778l71.846-22.475 3.51 36.037-75.356-13.562zM221 185.815L186.51 187l-25.493-78L221 185.815z"/><path fill="#999" stroke="#999" d="M234 198.617L229.903 221 221 185z"/><path fill="#000" stroke="#000" d="M44 0l117 109-72.302-37.8z"/><path fill="#BBB" stroke="#BBB" d="M0 252.468l98.903-4.78 24.019 51.744z"/><path fill="#999" stroke="#999" d="M122.545 299L99 248.384 148 246z"/><path fill="#BBB" stroke="#BBB" d="M230.673 221.514l25.35 15.503 9.307 30.52-34.657-46.023zM108.11 184.655L0 252.6 33.641 172l74.47 12.655zm-9.082 63.83L0 252.6l108.11-67.944-9.081 63.83zm122.72-63.355l6.58 24.222-32.127 1.838 25.547-26.06zm-25.606 26.18l-8.904-24.994 34.51-1.186-25.606 26.18z"/><path fill="#FBFBFB" d="M148.454 309.72L122 299l92 16z"/><path fill="#000" stroke="#000" d="M33.54 171.776L18 152.6l6.122-6.08z"/><path fill="#FFF" d="M225.334 302.742l-10.885 12.975L122 299z"/><path fill="#BBB" stroke="#BBB" d="M230.498 275.182L122 299l25.263-53z"/><path fill="#FFF" d="M122 299.011l102.426-22.772L230 275l-4.974 28z"/><path fill="#000" stroke="#000" d="M16.537 114.898l-3.425-61.21 76.674 17.127-73.25 44.083zm7.636 32.259l-10.544-9.848 7.073-7.285 3.47 17.133z"/><path fill="#999" stroke="#999" d="M169 202.545l17.88-16.601L184.428 225z"/><path fill="#999" stroke="#999" d="M186 187l-16.607 16.095L143 216z"/><path fill="#BBB" stroke="#BBB" d="M264.223 266.476L230 222l34.223 44.476z"/><path fill="#999" stroke="#999" d="M143.637 216L108 185l79 1.678z"/><path fill="#AAA" stroke="#AAA" d="M184 225l2.96-39.374 9.343 25.484z"/><path fill="#000" stroke="#000" d="M10 119.969L16.65 114 21 129z"/><path fill="#000" d="M185.065 225.884l-42.587-9.848L168.803 202z"/><path fill="#000" stroke="#000" d="M89 71L13 53.785 44.044 0z"/><path fill="#FBFBFB" d="M214.662 314.608l4.661 12.24-71.173-17.51z"/><path fill="#DDD" d="M146.878 247L143 216l41 9.324z"/><path fill="#AAA" stroke="#AAA" d="M108 185l36.088 30.46 3.199 30.97z"/><path fill="#DDD" d="M196.128 211.066l31.948-1.958L265 267l-68.872-55.934zM108.073 185l39.528 61.619-48.856 1.979L108.073 185z"/><path fill="#AAA" stroke="#AAA" d="M196.218 211L235 270l-51.593-44.906z"/><path fill="#BBB" stroke="#BBB" d="M183.71 224.863l51.777 45.143-6.529 5.543z"/><path fill="#DDD" d="M229.403 275L147 246.556l36.877-21.492L229.403 275zm35.662-7.962l-30.054 3.34-39.856-61.039 69.91 57.7z"/><path fill="#FBFBFB" d="M272.008 294.41l-12.651 25.953L218.346 327l53.662-32.59zm-52.45 32.873L214 315.148l11.114-12.204-5.557 24.339z"/><path fill="#FBFBFB" d="M225.052 302.969l7.757-3.07L219 327l6.052-24.031zM219 327l13.71-27.15 39.322-5.434L219 327z"/><path fill="#000" d="M265.134 267l9.849 5.75L245 276z"/><path fill="#000" d="M244.535 276.545L235 270.341l30.137-3.292-20.602 9.496zm-3.389 4.694L277 276.864l-4.964 17.61-30.89-13.235z"/><path fill="#000" d="M272.066 294.415l-39.391 5.513 8.692-19.138 30.7 13.625zm-39.207 5.441L225 303l4.644-28.003 3.215 24.86zm-3.212-24.864l5.612-4.992 9.476 6.143-15.088-1.151zm45.173-2.38l2.19 4.283-36.518 4.46 34.328-8.743z"/><path fill="#000" d="M241.28 281.167l2.987-5.354 30.61-3.163-33.597 8.517zm-11.638-6.18l11.768 6.105L232.735 300l-3.093-25.013z"/><path fill="#000" d="M244.553 276.002l-3.206 5.345-11.694-6.35z"/></g></svg>
